X:184
T:Rip the Calico
M:C
L:1/8
K:G Major
G3F GABG|AGEG AcBA|G3F GABG|ABGE D3E:|!
GEE2 cABG|AGEG AcBA|GEE2 cABG|[1 ABGE D3E:|[2 ABGE D3A|]!
BddB cABG|AGEG ABcA|BddB cABG|ABGE D3A|!
BddB cABG|AGEG ABcA|BddB eBdB|A3B cABA|]!
